modules/hawcons-stroke/icons/icon-28-three-fingers-swipe-left.svg

<?xml version="1.0" encoding="UTF-8" standalone="no"?>
<svg width="32px" height="32px" viewBox="0 0 32 32" version="1.1" xmlns="http://www.w3.org/2000/svg" xmlns:xlink="http://www.w3.org/1999/xlink" xmlns:sketch="http://www.bohemiancoding.com/sketch/ns">
    <!-- Generator: Sketch 3.0.3 (7891) - http://www.bohemiancoding.com/sketch -->
    <title>icon 28 three fingers swipe left</title>
    <desc>Created with Sketch.</desc>
    <defs></defs>
    <g id="Page-1" stroke="none" stroke-width="1" fill="none" fill-rule="evenodd" sketch:type="MSPage">
        <g id="icon-28-three-fingers-swipe-left" sketch:type="MSArtboardGroup" fill="#929292">
            <path d="M11.549999,7 L11.549999,14.3667868 L11.549999,14.3667868 C9.59484062,12.5381668 7.36276136,11.1742982 5.94111227,12.5959473 C3.95385186,14.5832077 8.12733074,18.4825159 11.3908194,24.4282229 C13.651806,28.5474856 16.9370838,30.0000003 20.049999,30.0000003 C24.7444196,30 28.549999,26.1944206 28.549999,21.5 L28.549999,15.5143168 C28.549999,14.1335355 27.4403369,13.014191 26.049999,13.014191 C25.487196,13.014191 24.9678293,13.2003871 24.549999,13.5145117 L24.549999,5.50345613 C24.549999,4.12083549 23.4403369,3 22.049999,3 C21.4146802,3 20.834712,3.23662723 20.3936709,3.62713444 C20.0411768,2.67671416 19.1303181,2 18.049999,2 C16.977213,2 16.0622481,2.67469496 15.7074958,3.62568646 C15.2676929,3.23628158 14.6884379,3 14.049999,3 C12.6692871,3 11.549999,4.12598062 11.549999,5.50282288 L11.549999,6 L4,6 L7.25,2.75 L6.5,2 L2,6.5 L6.5,11 L7.25,10.25 L4,7 L11.549999,7 L11.549999,7 Z M20.049999,29 C16.2902839,28.9995418 14.0599948,26.9488875 12.2973745,23.9830936 C8.38536099,17.4007216 5.58386193,14.3887562 6.67103171,13.2957153 C7.78162878,12.1791206 10.4915994,14.5979243 12.549999,16.7983451 L12.549999,5.50524116 C12.549999,4.66712976 13.2215719,4 14.049999,4 C14.8842018,4 15.549999,4.67391942 15.549999,5.50524116 L15.549999,16 L16.549999,16 L16.549999,4.49089813 C16.549999,3.67622006 17.2215719,3 18.049999,3 C18.8842018,3 19.549999,3.66749783 19.549999,4.49089813 L19.549999,15 L20.549999,15 L20.549999,5.5032506 C20.549999,4.66543579 21.2215719,4 22.049999,4 C22.8842018,4 23.549999,4.67302822 23.549999,5.5032506 L23.549999,16 L24.549999,16 L24.549999,15.5016756 C24.549999,14.6711894 25.2215719,14 26.049999,14 C26.8842018,14 27.549999,14.6723231 27.549999,15.5016756 L27.549999,17.7491622 L27.549999,21.5 C27.549999,25.6421358 24.1921348,29 20.049999,29 L20.049999,29 Z" id="three-fingers-swipe-left" sketch:type="MSShapeGroup"></path>
        </g>
    </g>
</svg>

<svg width="32" height="32" viewBox="0 0 32 32" xmlns="http://www.w3.org/2000/svg"><path d="M11.55 7v7.367c-1.955-1.829-4.187-3.193-5.609-1.771-1.987 1.987 2.186 5.887 5.45 11.832C13.65 28.548 16.937 30 20.05 30a8.5 8.5 0 0 0 8.5-8.5v-5.986c0-1.38-1.11-2.5-2.5-2.5-.563 0-1.082.186-1.5.5v-8.01A2.496 2.496 0 0 0 22.05 3a2.49 2.49 0 0 0-1.656.627A2.493 2.493 0 0 0 18.05 2a2.499 2.499 0 0 0-2.343 1.626 2.505 2.505 0 0 0-4.157 1.877V6H4l3.25-3.25L6.5 2 2 6.5 6.5 11l.75-.75L4 7h7.55zm8.5 22c-3.76 0-5.99-2.051-7.753-5.017-3.912-6.582-6.713-9.594-5.626-10.687 1.11-1.117 3.82 1.302 5.879 3.502V5.505a1.499 1.499 0 1 1 3 0V16h1V4.49a1.501 1.501 0 0 1 3 0V15h1V5.503c0-.838.672-1.503 1.5-1.503.834 0 1.5.673 1.5 1.503V16h1v-.498a1.5 1.5 0 1 1 3 0V21.5a7.5 7.5 0 0 1-7.5 7.5z" fill="#929292" fill-rule="evenodd"/></svg>
